actions/symbolic/address-book-new-symbolic.svg

<?xml version="1.0" encoding="UTF-8" standalone="no"?>
<svg
   height="16"
   width="16"
   version="1.1"
   id="svg6"
   sodipodi:docname="address-book-new-symbolic.svg"
   inkscape:version="1.2.2 (b0a8486541, 2022-12-01)"
   xmlns:inkscape="http://www.inkscape.org/namespaces/inkscape"
   xmlns:sodipodi="http://sodipodi.sourceforge.net/DTD/sodipodi-0.dtd"
   xmlns="http://www.w3.org/2000/svg"
   xmlns:svg="http://www.w3.org/2000/svg"
   xmlns:rdf="http://www.w3.org/1999/02/22-rdf-syntax-ns#"
   xmlns:cc="http://creativecommons.org/ns#"
   xmlns:dc="http://purl.org/dc/elements/1.1/">
  <sodipodi:namedview
     id="namedview7"
     pagecolor="#ffffff"
     bordercolor="#000000"
     borderopacity="0.25"
     inkscape:showpageshadow="2"
     inkscape:pageopacity="0.0"
     inkscape:pagecheckerboard="0"
     inkscape:deskcolor="#d1d1d1"
     showgrid="false"
     inkscape:zoom="109.4316"
     inkscape:cx="9.636156"
     inkscape:cy="10.440311"
     inkscape:window-width="1390"
     inkscape:window-height="902"
     inkscape:window-x="590"
     inkscape:window-y="31"
     inkscape:window-maximized="0"
     inkscape:current-layer="g4" />
  <metadata
     id="metadata12">
    <rdf:RDF>
      <cc:Work
         rdf:about="">
        <dc:format>image/svg+xml</dc:format>
        <dc:type
           rdf:resource="http://purl.org/dc/dcmitype/StillImage" />
      </cc:Work>
    </rdf:RDF>
  </metadata>
  <defs
     id="defs10" />
  <g
     color="#000000"
     transform="translate(-673,23)"
     id="g4"
     style="fill:#555761">
    <path
       id="path2"
       style="isolation:auto;mix-blend-mode:normal;fill:#555761;marker:none"
       d="M 3,1 C 2.446,1 2,1.446 2,2 v 12 c 0,0.554 0.446,1 1,1 h 6 v -1 l -5,3.4e-5 V 2 h 8.5 C 12.777,2 13,2.223 13,2.5 V 9 h 1 V 2 C 14,1.446 13.554,1 13,1 Z M 8.4511719,4.5 C 7.3657169,4.5265082 6.4996764,5.4142215 6.5,6.5 c 0,1.1045695 0.8954305,2 2,2 1.1045695,0 2,-0.8954305 2,-2 0,-1.1045695 -0.8954305,-2 -2,-2 -0.016275,-1.987e-4 -0.032553,-1.987e-4 -0.048828,0 z M 12,10.000001 v 2 H 10 V 14 h 2 v 2 h 2 v -2 h 2 v -2.000001 h -2 v -2 z"
       transform="translate(673,-23)"
       sodipodi:nodetypes="ssssccccssccsssccssccccccccccccccc" />
    <path
       id="rect456"
       style="fill:#555761;fill-opacity:1;fill-rule:evenodd;stroke:none;stroke-width:2;stroke-linecap:round;stroke-linejoin:round;paint-order:markers fill stroke;stop-color:#000000"
       d="M 680.5 -14 C 679.669 -14 679 -13.330999 679 -12.5 C 679 -11.669001 679.669 -11 680.5 -11 L 682 -11 A 1.0001 1.0001 0 0 1 683 -12 L 683.91602 -12 C 683.97079 -12.156114 684 -12.324711 684 -12.5 C 684 -13.330999 683.331 -14 682.5 -14 L 680.5 -14 z " />
  </g>
</svg>

<svg
        xmlns='http://www.w3.org/2000/svg'
        xmlns:svg='http://www.w3.org/2000/svg'
        id='svg6'
        width='16'
        height='16'>
  <path
          id='path2'
          fill='url(#gpa:foreground) #555761'
          fill-opacity='1'
          fill-rule='nonzero'
          marker-start='none'
          marker-mid='none'
          marker-end='none'
          d='M 3 1 C 2.446 1, 2 1.446, 2 2 L 2 14 C 2 14.554, 2.446 15, 3 15 L 9 15 L 9 14 L 4 14 L 4 2 L 12.5 2 C 12.777 2, 13 2.223, 13 2.5 L 13 9 L 14 9 L 14 2 C 14 1.446, 13.554 1, 13 1 Z M 8.45117 4.5 C 7.36572 4.52651, 6.49968 5.41422, 6.5 6.5 C 6.5 7.60457, 7.39543 8.5, 8.5 8.5 C 9.60457 8.5, 10.5 7.60457, 10.5 6.5 C 10.5 5.39543, 9.60457 4.5, 8.5 4.5 C 8.48372 4.4998, 8.46745 4.4998, 8.45117 4.5 Z M 12 10 L 12 12 L 10 12 L 10 14 L 12 14 L 12 16 L 14 16 L 14 14 L 16 14 L 16 12 L 14 12 L 14 10 Z'
          class="foreground"
          style='mix-blend-mode: normal; isolation: auto'>
  </path>
  <path
          id='rect456'
          fill='url(#gpa:foreground) #555761'
          fill-opacity='1'
          fill-rule='evenodd'
          stroke='none'
          stroke-width='2'
          stroke-linecap='round'
          stroke-linejoin='round'
          paint-order='markers fill stroke'
          d='M 7.5 9 C 6.669 9, 6 9.669, 6 10.5 C 6 11.331, 6.669 12, 7.5 12 L 9 12 A 1.0001 1.0001 0 0 1 10 11 L 10.916 11 C 10.9708 10.8439, 11 10.6753, 11 10.5 C 11 9.669, 10.331 9, 9.5 9 Z'
          class="foreground">
  </path>
</svg>
